!!!SOCIAL_FUNCTION:	songs of principal social dances with corn dance
!!!PDT:	1956
!!!OTL: No_66_Closing_Song_of_Alligator_Dance.krn
!!!LANG: Non-Tone
!!!LING_GROUP: Muskogean
!!!REG: Florida
**kern
*staff1
=1-
*clefF4
*k[b-]
*M2/4
8.r
16B-\
8.G\L
16F\Jk
=2
4.D\
16BB-/LL
16D/JJ
=3||
*M3/4
8.D/L
16C/Jk
8.C/L
16D/Jk
8.D\L
16F\Jk
=4||
*M2/4
4.D\
16BB-/LL
16D/JJ
=5||
*M3/4
8.D/L
16C/Jk
8C/
16r
16G\
8.G\L
16F\Jk
=6||
*M2/4
4.D\
16BB-/LL
16D/JJ
=7||
*M3/4
8.D/L
16C/Jk
8.C/L
16D/Jk
8.D\L
16F\Jk
=8||
*M2/4
4.D\
16BB-/LL
16D/JJ
=9||
*M3/4
8.D/L
16C/Jk
8C/
16r
16G\
8.G\L
16F\Jk
=10||
*M2/4
4.D\
16BB-/LL
16D/JJ
=11||
*M3/4
8.D/L
16C/Jk
8.C/L
16D/Jk
8.D\L
16F\Jk
=12||
*M2/4
4.D\
16BB-/LL
16D/JJ
=13
8.D/L
16C/Jk
8C/
8r
==
*-
